X: 30227
T: Old Irish Lullaby
R: reel
M: 4/4
K: Eminor
|dc|B2d2f2 ef|g3a gfed|efgf edcB|A2ABA2GA|
B2d2f2 ef|g3a gfed|e2ed efge|dedcB2BA|
|:G2G2A2A2|d3cB2BA|G2G2A2A2|d3cB2BA|
G2G2A2A2|BcBA B2d2|efgf edcB|1 A2G2G2BA:|2 A3GG4||

